assets/media/flags/he.svg

<svg enable-background="new 0 0 512 512" viewBox="0 0 512 512" xmlns="http://www.w3.org/2000/svg"><circle cx="256" cy="256" fill="#f0f0f0" r="256"/><g fill="#0052b4"><path d="m352.393 200.348h-64.263l-32.13-55.652-32.129 55.652h-64.264l32.134 55.652-32.134 55.652h64.264l32.129 55.652 32.13-55.652h64.263l-32.134-55.652zm-56.918 55.652-19.736 34.188h-39.475l-19.739-34.188 19.738-34.188h39.475zm-39.475-68.377 7.346 12.724h-14.69zm-59.214 34.189h14.692l-7.346 12.724zm0 68.376 7.347-12.724 7.346 12.724zm59.214 34.188-7.345-12.724h14.691zm59.214-34.188h-14.692l7.347-12.724zm-14.692-68.376h14.692l-7.346 12.724z"/><path d="m415.357 55.652h-318.714c-23.363 18.608-43.399 41.21-59.069 66.783h436.852c-15.671-25.572-35.707-48.175-59.069-66.783z"/><path d="m96.643 456.348h318.713c23.363-18.608 43.399-41.21 59.069-66.783h-436.851c15.671 25.572 35.707 48.175 59.069 66.783z"/></g></svg>

<?xml version="1.0" encoding="iso-8859-1"?>
<!-- Generator: Adobe Illustrator 19.0.0, SVG Export Plug-In . SVG Version: 6.00 Build 0)  -->
<svg version="1.1" id="Layer_1" xmlns="http://www.w3.org/2000/svg" xmlns:xlink="http://www.w3.org/1999/xlink" x="0px" y="0px"
	 viewBox="0 0 512 512" style="enable-background:new 0 0 512 512;" xml:space="preserve">
<circle style="fill:#F0F0F0;" cx="256" cy="256" r="256"/>
<g>
	<path style="fill:#0052B4;" d="M352.393,200.348H288.13L256,144.696l-32.129,55.652h-64.264L191.741,256l-32.134,55.652h64.264
		L256,367.304l32.13-55.652h64.263L320.259,256L352.393,200.348z M295.475,256l-19.736,34.188h-39.475L216.525,256l19.738-34.188
		h39.475L295.475,256z M256,187.623l7.346,12.724h-14.69L256,187.623z M196.786,221.812h14.692l-7.346,12.724L196.786,221.812z
		 M196.786,290.188l7.347-12.724l7.346,12.724H196.786z M256,324.376l-7.345-12.724h14.691L256,324.376z M315.214,290.188h-14.692
		l7.347-12.724L315.214,290.188z M300.522,221.812h14.692l-7.346,12.724L300.522,221.812z"/>
	<path style="fill:#0052B4;" d="M415.357,55.652H96.643c-23.363,18.608-43.399,41.21-59.069,66.783h436.852
		C458.755,96.863,438.719,74.26,415.357,55.652z"/>
	<path style="fill:#0052B4;" d="M96.643,456.348h318.713c23.363-18.608,43.399-41.21,59.069-66.783H37.574
		C53.245,415.137,73.281,437.74,96.643,456.348z"/>
</g>
<g>
</g>
<g>
</g>
<g>
</g>
<g>
</g>
<g>
</g>
<g>
</g>
<g>
</g>
<g>
</g>
<g>
</g>
<g>
</g>
<g>
</g>
<g>
</g>
<g>
</g>
<g>
</g>
<g>
</g>
</svg>
